dist/imgs/user-icon.svg

<svg width="15" height="16" viewBox="0 0 15 16" fill="none" xmlns="http://www.w3.org/2000/svg">
<path d="M9.74485 2.39181C9.17474 1.77628 8.37845 1.43732 7.49954 1.43732C6.61595 1.43732 5.81702 1.77423 5.24954 2.38595C4.67591 3.00441 4.39642 3.84493 4.46204 4.75255C4.59212 6.54317 5.95472 7.99981 7.49954 7.99981C9.04436 7.99981 10.4046 6.54347 10.5367 4.75314C10.6033 3.85372 10.322 3.01495 9.74485 2.39181Z" fill="#4FD1C5"/>
<path d="M12.6559 14.5616H2.34343C2.20845 14.5634 2.07477 14.535 1.95213 14.4786C1.82949 14.4222 1.72096 14.3392 1.63444 14.2356C1.44402 14.0079 1.36726 13.6971 1.42409 13.3827C1.67136 12.0111 2.44304 10.8588 3.65593 10.0499C4.73347 9.33186 6.09841 8.93665 7.49968 8.93665C8.90095 8.93665 10.2659 9.33215 11.3434 10.0499C12.5563 10.8585 13.328 12.0108 13.5753 13.3824C13.6321 13.6968 13.5553 14.0076 13.3649 14.2353C13.2784 14.339 13.1699 14.422 13.0473 14.4785C12.9246 14.535 12.7909 14.5634 12.6559 14.5616Z" fill="#4FD1C5"/>
</svg>

<svg width="15" height="16" fill="none" xmlns="http://www.w3.org/2000/svg"><path d="M9.745 2.392c-.57-.616-1.367-.955-2.245-.955-.884 0-1.683.337-2.25.949-.574.618-.854 1.459-.788 2.367C4.592 6.543 5.955 8 7.5 8c1.544 0 2.905-1.457 3.037-3.247.066-.9-.215-1.738-.792-2.361zm2.911 12.17H2.343a.908.908 0 01-.709-.326 1.035 1.035 0 01-.21-.853c.247-1.372 1.019-2.524 2.232-3.333C4.733 9.332 6.098 8.937 7.5 8.937c1.401 0 2.766.395 3.843 1.113 1.213.808 1.985 1.96 2.232 3.332.057.315-.02.626-.21.853a.909.909 0 01-.71.327z" fill="#4FD1C5"/></svg>
